X: 2001
T: Cripple Creek
C:Arr. Jethro Burns
B: steve tunes
M:4/4
L:1/8
Q: 1/4=136
K:A
V:1 
x fg |: "A"agaf efec | "D"dcdf "A"eAB=c | [cA][cA][cA]A BAFD | "E"EFAB "A"A2 fg |
agaf efec | "D"dcdf "A"eAB=c | [cA][cA][cA]A BAFD | "E"EFAB "A"A4 |
"A"c2 c2 BAAA | c2 c2 BAAA | c2 c2 BAFD | "E"EFAB "A"A4 |
"A"c2 c2 BAAA | c2 c2 BAAA | c2 c2 BAFD | [1 "E"EFAB "A"A4 :|
[2 "A"(3agf ef ecBA | EFAc AFED | "B7"^DFAc "E7"=DEGB | "A"(3ABc (3efg a4||
% abcbook-tune_id 6298c245d0a62de9b0d0f894


% abcbook-boost 4
% abcbook-tablature 
% abcbook-transpose 
% abcbook-lastupdated 1655260254694
% abcbook-soundfonts 
% abcbook-repeats 3


